X:0097
M:2/4
L:1/16
K:G
d2|(edcB)   G2d2 | B2d2   G2d2 |edcB  G2d2 |B2``A2  A2
d2|(edcB)   G2d2 | B2d2   A2B2 |G2E2  D2B,2|G,G,G,2 G,2:|

